antibot/app/images/dist/why/why-icon4.svg

<svg width="34" height="36" viewBox="0 0 34 36" fill="none" xmlns="http://www.w3.org/2000/svg">
<path d="M28.4337 11.4058L29.7504 8.48913L32.6671 7.17246C32.8125 7.10617 32.9359 6.99943 33.0224 6.86497C33.1089 6.73051 33.1549 6.57401 33.1549 6.41413C33.1549 6.25425 33.1089 6.09774 33.0224 5.96328C32.9359 5.82882 32.8125 5.72208 32.6671 5.6558L29.7504 4.33913L28.4337 1.4058C28.3674 1.2603 28.2607 1.13695 28.1262 1.05046C27.9918 0.96396 27.8353 0.917969 27.6754 0.917969C27.5155 0.917969 27.359 0.96396 27.2245 1.05046C27.0901 1.13695 26.9833 1.2603 26.9171 1.4058L25.6004 4.32246L22.6671 5.63913C22.5216 5.70542 22.3982 5.81216 22.3117 5.94662C22.2252 6.08108 22.1792 6.23758 22.1792 6.39746C22.1792 6.55734 22.2252 6.71385 22.3117 6.84831C22.3982 6.98277 22.5216 7.08951 22.6671 7.15579L25.5837 8.47246L26.9004 11.4058C27.2004 12.0558 28.1337 12.0558 28.4337 11.4058ZM15.1671 13.9058L12.5171 8.07246C11.9337 6.77246 10.0671 6.77246 9.48372 8.07246L6.83372 13.9058L1.00039 16.5558C-0.299609 17.1558 -0.299609 19.0058 1.00039 19.5891L6.83372 22.2391L9.48372 28.0725C10.0837 29.3725 11.9337 29.3725 12.5171 28.0725L15.1671 22.2391L21.0004 19.5891C22.3004 18.9891 22.3004 17.1391 21.0004 16.5558L15.1671 13.9058ZM26.9004 24.7391L25.5837 27.6558L22.6671 28.9725C22.5216 29.0388 22.3982 29.1455 22.3117 29.2799C22.2252 29.4144 22.1792 29.5709 22.1792 29.7308C22.1792 29.8907 22.2252 30.0472 22.3117 30.1816C22.3982 30.3161 22.5216 30.4228 22.6671 30.4891L25.5837 31.8058L26.9004 34.7391C26.9667 34.8846 27.0734 35.008 27.2079 35.0945C27.3423 35.181 27.4988 35.227 27.6587 35.227C27.8186 35.227 27.9751 35.181 28.1096 35.0945C28.244 35.008 28.3508 34.8846 28.4171 34.7391L29.7337 31.8225L32.6671 30.5058C32.8125 30.4395 32.9359 30.3328 33.0224 30.1983C33.1089 30.0638 33.1549 29.9073 33.1549 29.7475C33.1549 29.5876 33.1089 29.4311 33.0224 29.2966C32.9359 29.1622 32.8125 29.0554 32.6671 28.9891L29.7504 27.6725L28.4337 24.7391C28.3654 24.5934 28.2571 24.4702 28.1213 24.3839C27.9855 24.2976 27.828 24.2517 27.6671 24.2517C27.5062 24.2517 27.3486 24.2976 27.2128 24.3839C27.077 24.4702 26.9687 24.5934 26.9004 24.7391Z" fill="#29B74D"/>
</svg>

<svg width="34" height="36" fill="none" xmlns="http://www.w3.org/2000/svg"><path d="m28.434 11.406 1.316-2.917 2.917-1.317a.834.834 0 0 0 0-1.516L29.75 4.339l-1.316-2.933a.833.833 0 0 0-1.517 0L25.6 4.322 22.667 5.64a.833.833 0 0 0 0 1.517l2.917 1.316 1.316 2.934c.3.65 1.234.65 1.534 0Zm-13.267 2.5-2.65-5.834c-.583-1.3-2.45-1.3-3.033 0l-2.65 5.834L1 16.556c-1.3.6-1.3 2.45 0 3.033l5.834 2.65 2.65 5.834c.6 1.3 2.45 1.3 3.033 0l2.65-5.834L21 19.59c1.3-.6 1.3-2.45 0-3.033l-5.833-2.65ZM26.9 24.739l-1.316 2.917-2.917 1.317a.834.834 0 0 0 0 1.516l2.917 1.317 1.316 2.933a.833.833 0 0 0 1.517 0l1.317-2.916 2.933-1.317a.834.834 0 0 0 0-1.517l-2.917-1.317-1.316-2.933a.846.846 0 0 0-1.534 0Z" fill="#29B74D"/></svg>
